svg/map_issue.svg

<svg width="66" height="69" viewBox="0 0 66 69" fill="none" xmlns="http://www.w3.org/2000/svg">
<path d="M22.1407 55.7085L4.65098 61.5385C3.34681 61.9732 2 61.0025 2 59.6275V10.1652C2 9.29831 2.55474 8.52863 3.37715 8.25452L22.1407 2M22.1407 55.7085L39.6305 61.5385C40.9346 61.9732 42.2814 61.0025 42.2814 59.6275V10.1652C42.2814 9.29831 41.7265 8.52863 40.9041 8.25452L22.1407 2M22.1407 55.7085V2" stroke="#55E6A5" stroke-width="3" stroke-linecap="round" stroke-linejoin="round"/>
<path d="M42.2812 8.71604L59.7711 2.88616C61.0752 2.45142 62.4219 3.42213 62.4219 4.79687V42.2838" stroke="#55E6A5" stroke-width="3" stroke-linecap="round" stroke-linejoin="round"/>
<path d="M49.4004 66.9996L56.5215 59.8789M56.5215 59.8789L63.6422 52.7578M56.5215 59.8789L49.4004 52.7578M56.5215 59.8789L63.6422 66.9996" stroke="#55E6A5" stroke-width="3" stroke-linecap="round" stroke-linejoin="round"/>
</svg>

<svg xmlns="http://www.w3.org/2000/svg" width="66" height="69" fill="none"><path stroke="#55E6A5" stroke-linecap="round" stroke-linejoin="round" stroke-width="3" d="m22.14 55.709-17.489 5.83A2.014 2.014 0 0 1 2 59.627V10.165c0-.867.555-1.636 1.377-1.91L22.141 2m0 53.709 17.49 5.83a2.014 2.014 0 0 0 2.65-1.912V10.165c0-.867-.554-1.636-1.377-1.91L22.141 2m0 53.709V2M42.281 8.716l17.49-5.83a2.014 2.014 0 0 1 2.65 1.91v37.488M49.4 67l7.122-7.121m0 0 7.12-7.121m-7.12 7.12-7.122-7.12m7.122 7.12L63.642 67"/></svg>
